symbols/web/subject/materialsymbolsrounded/subject_wght100gradN25_24px.svg

<svg xmlns="http://www.w3.org/2000/svg" height="24" width="24"><path d="M5.075 18.25q-.15 0-.237-.087-.088-.088-.088-.238 0-.125.088-.213.087-.087.237-.087H13q.125 0 .225.1t.1.225q0 .125-.1.213-.1.087-.225.087Zm0-7.925q-.15 0-.237-.1-.088-.1-.088-.225t.088-.225q.087-.1.237-.1h13.9q.1 0 .2.1t.1.225q0 .125-.1.225t-.2.1Zm0 3.975q-.15 0-.237-.1-.088-.1-.088-.225t.088-.225q.087-.1.237-.1h13.9q.1 0 .2.1t.1.225q0 .125-.1.225t-.2.1Zm0-7.95q-.15 0-.237-.088-.088-.087-.088-.237 0-.125.088-.213.087-.087.237-.087h13.9q.1 0 .2.1t.1.225q0 .125-.1.212-.1.088-.2.088Z"/></svg>

<svg xmlns="http://www.w3.org/2000/svg" height="24" width="24"><path d="M5.075 18.25Q4.925 18.25 4.838 18.163Q4.75 18.075 4.75 17.925Q4.75 17.8 4.838 17.712Q4.925 17.625 5.075 17.625H13Q13.125 17.625 13.225 17.725Q13.325 17.825 13.325 17.95Q13.325 18.075 13.225 18.163Q13.125 18.25 13 18.25ZM5.075 10.325Q4.925 10.325 4.838 10.225Q4.75 10.125 4.75 10Q4.75 9.875 4.838 9.775Q4.925 9.675 5.075 9.675H18.975Q19.075 9.675 19.175 9.775Q19.275 9.875 19.275 10Q19.275 10.125 19.175 10.225Q19.075 10.325 18.975 10.325ZM5.075 14.3Q4.925 14.3 4.838 14.2Q4.75 14.1 4.75 13.975Q4.75 13.85 4.838 13.75Q4.925 13.65 5.075 13.65H18.975Q19.075 13.65 19.175 13.75Q19.275 13.85 19.275 13.975Q19.275 14.1 19.175 14.2Q19.075 14.3 18.975 14.3ZM5.075 6.35Q4.925 6.35 4.838 6.262Q4.75 6.175 4.75 6.025Q4.75 5.9 4.838 5.812Q4.925 5.725 5.075 5.725H18.975Q19.075 5.725 19.175 5.825Q19.275 5.925 19.275 6.05Q19.275 6.175 19.175 6.262Q19.075 6.35 18.975 6.35Z"/></svg>
